packages/ui/app/images/icons/normal.svg

<?xml version="1.0" encoding="UTF-8"?>
<svg width="20px" height="20px" viewBox="0 0 20 20" version="1.1" xmlns="http://www.w3.org/2000/svg" xmlns:xlink="http://www.w3.org/1999/xlink">
    <!-- Generator: Sketch 52.5 (67469) - http://www.bohemiancoding.com/sketch -->
    <title>警告 (1)</title>
    <desc>Created with Sketch.</desc>
    <g id="0428-组件" stroke="none" stroke-width="1" fill="none" fill-rule="evenodd">
        <g id="集群事件" transform="translate(-1066.000000, -201.000000)" fill="#1A435F" fill-rule="nonzero">
            <g id="警告-(1)" transform="translate(1066.000000, 201.000000)">
                <path d="M10,0 C4.48660714,0 0,4.48660714 0,10 C0,15.5133929 4.48660714,20 10,20 C15.5133929,20 20,15.5133929 20,10 C20,4.48660714 15.5133929,0 10,0 Z M10,18.6955357 C5.21763393,18.6955357 1.3046875,14.7825893 1.3046875,10 C1.3046875,5.21741071 5.21741071,1.30446429 10,1.30446429 C14.7825893,1.30446429 18.6955357,5.21741071 18.6955357,10 C18.6955357,14.7825893 14.7825893,18.6955357 10,18.6955357 Z" id="形状"></path>
                <path d="M10.0029018,13.3370536 C10.3683036,13.3370536 10.6725446,12.9638393 10.6801339,12.5035714 L10.8207589,5.0015625 C10.8256398,4.70610989 10.6708121,4.43098758 10.4157251,4.28183432 C10.1606381,4.13268107 9.84494223,4.13268107 9.58985524,4.28183432 C9.33476825,4.43098758 9.17994058,4.70610989 9.18482143,5.0015625 L9.32544643,12.5035714 C9.33392857,12.9638393 9.63727679,13.3370536 10.0029018,13.3370536 Z M10.0026786,14.1705357 C9.55825893,14.1705357 9.16919643,14.559375 9.16919643,15.0040179 C9.16919643,15.4486607 9.55825893,15.8375 10.0026786,15.8375 C10.4470982,15.8375 10.8361607,15.4486607 10.8361607,15.0040179 C10.8361607,14.559375 10.4464286,14.1705357 10.0026786,14.1705357 Z" id="形状"></path>
            </g>
        </g>
    </g>
</svg>

<svg width="20" height="20" xmlns="http://www.w3.org/2000/svg">
  <g fill="#1A435F" fill-rule="nonzero">
    <path d="M10 0C4.487 0 0 4.487 0 10s4.487 10 10 10 10-4.487 10-10S15.513 0 10 0zm0 18.696c-4.782 0-8.695-3.913-8.695-8.696 0-4.783 3.912-8.696 8.695-8.696S18.696 5.217 18.696 10c0 4.783-3.913 8.696-8.696 8.696z"/>
    <path d="M10.003 13.337c.365 0 .67-.373.677-.833l.14-7.502a.818.818 0 10-1.635 0l.14 7.502c.009.46.312.833.678.833zm0 .834a.855.855 0 00-.834.833c0 .445.39.834.834.834a.855.855 0 00.833-.834.855.855 0 00-.833-.833z"/>
  </g>
</svg>
